X: 1
T:From Shore to Shore -- Reel
M:2/4
L:1/16
R:reel
B:Ryans Mammoth Collection
N:252
N:Contributed by Ray Davies ray:davies99.freeserve.co.uk
K:A
uE2|\
.A2(ce) .a2(gf) | ecdB cAFA | E2(AB) cAaf | ecAc (BA)(FB)|
A2(ce) a2(cf) | ecdB cAFA | E2(AB) cAaf | ecBc A2 :|
u(Ad)|\
.f2(fg) .a2(af) | efec (dc)(BA) |(Ac)(ec) (Ad)(fc) | efec (dc)(BA)|
A,CEA CEAc | EAc"4"e Acea | gbaf edcB | BAGB A2 :|
